!!!!SEGMENT: pl-wtm--r-1655_stefani-jozef--wspomnienie.krn
!!!cenid: 18xx:2049
!!!COM: Stefani, Józef
!!!COM-rismID: pe30024097
!!!CDT: 1800/04/16-1876/03/19
!!!CNT: Polish
!!!OTL: Wspomnienie
!!!PDT:
!!!AGN: Secular
!!!YEC: Copyright 2022 Narodowy Instytut Fryderyka Chopina (https://polishscores.org)
!!!YEM: License CC-BY-4.0 (https://creativecommons.org/licenses/by/4.0)
!!!SMS-siglum: PL-Wtm
!!!SMS-shelfmark: R 1655
!!!SMS-shelfwork: W
!!!SMS-variant:
!!!SMS-altvar:
!!!NIFC-rismSourceID: 1001114898
!!!NIFC-rismChildID: 1001114898
!!!NIFC-islandoraID:
!!!URL-pdf-islandora:
!!!URL-scan:
!!!IIIF:
!!!ONB-nifc: UWAGA: No. 12, skan 0006-0007
!!!OMD: No 12. Allegretto.
!!!AIN: 1 empty 1 forte
!!!key:
**kern	**kern	**dynam	**kern	**text	**text	**text	**dynam
*part2	*part2	*	*part1	*	*	*	*
*staff3	*staff2	*	*staff1	*	*	*	*
*Iforte	*Iforte	*	*Iempty	*	*	*	*
*I"Fortepian	*I"Fortepian	*	*I"Dwuśpiew	*	*	*	*
*clefF4	*clefG2	*	*clefG2	*	*	*	*
*k[]	*k[]	*	*k[]	*	*	*	*
*C:	*C:	*	*C:	*	*	*	*
*M3/8	*M3/8	*	*M3/8	*	*	*	*
=1	=1	=1	=1	=1	=1	=1	=1
!	!	!LO:DY:rj	!LO:TX:a:i:t=Wspomnienie Ludwika M.	!	!	!	!LO:DY:rj
8F\L	8aL 8f/	p	8a 8f/	1.) Dzie-	2.) Mia-	3.) To	p
!	!	!	!	!	!	!	!LO:DY:a
8F\	8a 8f/	.	8a 8f/	-cię	-łem	znów	<
8D\J	8bJ 8g 8f/	.	8b 8d/	u	przy-	mi-	[[
=2	=2	=2	=2	=2	=2	=2	=2
*^	*	*	*	*	*	*	*
!	!	!	!	!	!	!	!	!LO:DY:a
4.C/	8C\L	8ccL 8g 8e/	.	8cc 8e/	Ma-	-ia-	-ło-	>
.	8G\	8g 8e/	.	8g 8e/	-tki	-cioł	-ści	]
.	8c\J	8gJ 8e/	.	8g 8e/	ba-	z tych	u-	.
*v	*v	*	*	*	*	*	*	*
=3	=3	=3	=3	=3	=3	=3	=3
8F\L	8aL 8f/	.	8a 8f/	-wi-	ie-	-nie-	.
!	!	!	!	!	!	!	!LO:DY:a
8F\	8a 8f/	.	8a 8f/	-łem	-dni	-sio-	<
8D\J	8bJ 8g 8f/	.	8b 8d/	się	nie-	-ny	[[
=4	=4	=4	=4	=4	=4	=4	=4
*^	*	*	*	*	*	*	*
!	!	!	!	!	!	!	!	!LO:DY:a
4.C/	8C\L	8ccL 8g 8e/	.	8cc 8e/	mi-	-ste-	strza-	>
.	8G\	8g 8e/	.	8g 8e/	-le,	-ty!	-łem,	]
.	8c\J	8ccJ 8g 8e/	.	8cc 8e/	Naj-	Już	Jak	.
*v	*v	*	*	*	*	*	*	*
!!LO:LB:g=original
=5	=5	=5	=5	=5	=5	=5	=5
(8C\L	(8eeL 8g/	.	(>8eeL 8g/	-mniej-	ci-	le-	.
8D\)	8dd 8f/	.	8ddJ 8f/)	.	.	.	.
8E\J	8ccJ 8e/)	.	8cc 8e/	-sza	-che	-ki	.
=6	=6	=6	=6	=6	=6	=6	=6
4F\	4a 4f/	.	4a 4f/	tro-	gro-	mo-	.
8D\	8dd 8d/	.	8dd 8d/	-ska,	-bów	-tyl	.
=7	=7	=7	=7	=7	=7	=7	=7
!LO:TX:t=P:problem=mixed beam	!	!	!	!	!	!	!
8G\L	16ccLL 16e/	.	16cc 16e/	nie-	zkle-	Co	.
.	16gJJ 16e/	.	16g 16e/	-chmu-	-pie-	sło-	.
8GG/	8aL 8f/	.	8a 8f/	-rzy-	-nia	-dy-	.
8G\J	8bJ 8f 8d/	.	8b 8d/	-ła	za-	-cze	.
=8	=8	=8	=8	=8	=8	=8	=8
8c 8C\	8dd 8f/	.	8dd 8f/	czo-	-le-	z kwia-	.
4c 4C\	4cc 4e/	.	4cc 4e^>/	-ła	-gli,	-ta	.
=9	=9	=9	=9	=9	=9	=9	=9
!LO:TX:t=P:problem=mixed beam	!	!LO:DY:rj	!	!	!	!	!LO:DY:rj
(>16GG/LL	8bL 8g^/	f	8b 8g^>/	Bło-	A	I	f
16G\	.	.	.	.	.	.	.
16GG/	8cc 8a^/	.	8cc 8a^>/	-go	dru-	z serc	.
16G\	.	.	.	.	.	.	.
16GG/	8cc#XJ 8a#X^/	.	8cc#X 8a#X^>/	szczę-	-dzy	wza-	.
16G\JJ)	.	.	.	.	.	.	.
!!LO:LB:g=original
=10	=10	=10	=10	=10	=10	=10	=10
*tremolo	*	*	*	*	*	*	*
!LO:TX:t=P:problem=mixed beam	!	!	!	!	!	!	!
(>16GG/LL	4dd 4b\	.	4dd 4b\	-śli-	dą-	-je-	.
16G\	.	.	.	.	.	.	.
16GG/	.	.	.	.	.	.	.
16G\	.	.	.	.	.	.	.
16GG/	8b 8g/	.	8b 8g/	-wie	-żąc	-mnych	.
16G\JJ)	.	.	.	.	.	.	.
=11	=11	=11	=11	=11	=11	=11	=11
(>16D\LL	8.ccL 8.a/	.	8.cc 8.a/	u-	do	roz-	.
16d\	.	.	.	.	.	.	.
16D\	.	.	.	.	.	.	.
16d\	16bL 16g/	.	16b 16g/	-pły-	wy-	-ko-	.
16D\	16a 16f#X/	.	16a 16f#X/	-wa-	-tknię-	-sze	.
16d\JJ)	16ddJJ 16f#/	.	16dd 16f#/	-ły	-tej	czer-	.
*Xtremolo	*	*	*	*	*	*	*
=12	=12	=12	=12	=12	=12	=12	=12
!LO:TX:t=P:problem=mixed beam	!	!	!	!	!	!	!
(>16GG/LL	4b 4g/	.	4b 4g/	chwi-	me-	-pa-	.
16G\	.	.	.	.	.	.	.
16GG/	.	.	.	.	.	.	.
16G\JJ)	.	.	.	.	.	.	.
(16DD/LL	8a 8f#X/	.	8a 8f#X/	-le,	-ty	-łem,	.
16D/JJ)	.	.	.	.	.	.	.
=13	=13	=13	=13	=13	=13	=13	=13
!LO:TX:t=P:problem=mixed beam	!	!	!	!	!	!	!
(>16EE/LL	8gL 8e/	.	8g 8e/	Nie-	W róż-	Lecz	.
16E\	.	.	.	.	.	.	.
16EE/	8g 8e/	.	8g 8e/	-wier-	-ne	szczę-	.
16E\JJ)	.	.	.	.	.	.	.
(16CC/LL	8aJ 8e/	.	8a 8c/	-ne	sie	-ście	.
16C/JJ)	.	.	.	.	.	.	.
=14	=14	=14	=14	=14	=14	=14	=14
*tremolo	*	*	*	*	*	*	*
(16BBB/LL	8bL 8d#X/	.	8b 8B/	ser-	stro-	roz-	.
16BB/	.	.	.	.	.	.	.
16BBB/	8f#X 8d#/	.	8f#X 8d#X/	-ce	-ny	-kosz	.
16BB/	.	.	.	.	.	.	.
16BBB/	8f#J 8d#/	.	8f# 8d#/	myśl	po	zbył	.
16BB/JJ)	.	.	.	.	.	.	.
!!LO:LB:g=original
=15	=15	=15	=15	=15	=15	=15	=15
8E/L	8gL 8e/	.	8g 8e/	by-	świe-	prę-	.
8AA/	8e 8c/	.	8e 8c/	-ła	-cie	-dko	.
8C/J	8aJ 8c/	.	8a 8c/	we-	roz-	u-	.
=16	=16	=16	=16	=16	=16	=16	=16
*^	*	*	*	*	*	*	*
4D/	16D\LL	8d/L	.	8d/L	-so-	-bie-	-la-	.
.	16B\	.	.	.	.	.	.	.
.	16B-X\	16eL 16c#X/	.	16eL 16c#X/	.	.	.	.
.	16A\JJ	16f#XJJ 16cn/	.	16f#XJJ 16cn/	.	.	.	.
8G\	8ryy	8g 8B/	.	8g 8B/	ła,	-gli,	-ła	.
*v	*v	*	*	*	*	*	*	*
=17	=17	=17	=17	=17	=17	=17	=17
!	!	!LO:DY:rj	!	!	!	!	!LO:DY:rj
(16CC/LL	8gL 8e/	p	8g 8e/	Na-	Dla	E-	p
16C/	.	.	.	.	.	.	.
16CC/	8cc 8e/	.	8cc 8e/	-dzie-	nich	-cho	.
16C/	.	.	.	.	.	.	.
16CC/	8aJ 8f/	.	8a 8f/	-jo.	się	tych	.
16C/JJ)	.	.	.	.	.	.	.
=18	=18	=18	=18	=18	=18	=18	=18
(16CC/LL	16f#XLL 16d#X/	.	(16f#XLL 16d#X/	wszys-	ser-	u-	.
16C/	16gJJ 16e/	.	16gJJ 16e/)	.	.	.	.
16CC/	8ccL 8e/	.	8cc 8e/	-tko	-ce	-ciech	.
16C/	.	.	.	.	.	.	.
16CC/	8aJ 8fn/	.	8a 8fn/	ia-	wy-	prze-	.
16C/JJ)	.	.	.	.	.	.	.
!!LO:PB:g=original
=19	=19	=19	=19	=19	=19	=19	=19
(16CC/LL	4.g 4.e/	.	4.g 4.e/	-śnia-	-la-	-brzmia-	.
16C/	.	.	.	.	.	.	.
16CC/	.	.	.	.	.	.	.
16C/	.	.	.	.	.	.	.
16CC/	.	.	.	.	.	.	.
16C/JJ)	.	.	.	.	.	.	.
=20	=20	=20	=20	=20	=20	=20	=20
*rep	*	*	*	*	*	*	*
(16CC/LL	4.e 4.c/	.	4.e 4.c/	-ło	-ło	-ło	.
16C/	.	.	.	.	.	.	.
16CC/	.	.	.	.	.	.	.
16C/	.	.	.	.	.	.	.
16CC/	.	.	.	.	.	.	.
16C/JJ)	.	.	.	.	.	.	.
*Xrep	*	*	*	*	*	*	*
*Xtremolo	*	*	*	*	*	*	*
=21	=21	=21	=21	=21	=21	=21	=21
8CL 8CC/	8ccL 8g 8e/	.	(>16ccLL 16e/	Nie-	Na	Słod-	.
.	.	.	32ddL 32f/	.	.	.	.
.	.	.	32ccJJJ 32e/)	.	.	.	.
8G 8GG/	8b 8g 8d/	.	8b 8d/	-zna-	.	-kie	.
8CJ 8CC/	8ccJ 8g 8e/	.	8cc 8e/	-ne	o-	zni-	.
=22	=22	=22	=22	=22	=22	=22	=22
*tremolo	*	*	*	*	*	*	*
*	*	*	*^	*	*	*	*
8GL 8GG\	8ddL 8b 8g\	.	16dd/	8b\	by-	-fia-	-knę-	.
.	.	.	16dd/	.	-ło	-ry	.	.
8G 8GG\	8cc 8a\	.	8cc/	8a\	to	po-	-ło	.
8GJ 8GG\	8ddJ 8b\	.	8dd/	8b\	cier-	-świę-	złu-	.
=23	=23	=23	=23	=23	=23	=23	=23	=23
!	!	!LO:DY:rj	!	!	!	!	!	!LO:DY:rj
8.C\L	4.ee 4.cc 4.g/	f	4.ee/	4.cc\	-pie-	-ce-	-dze-	f
(16E\L	.	.	.	.	.	.	.	.
16G\	.	.	.	.	.	.	.	.
16c\JJ)	.	.	.	.	.	.	.	.
*	*	*	*v	*v	*	*	*	*
!!LO:LB:g=original
=24	=24	=24	=24	=24	=24	=24	=24
4.C/	4.cc 4.g 4.e/	.	4.cc 4.e/	-nie	-nie	-nie	.
=25	=25	=25	=25	=25	=25	=25	=25
!	!	!LO:DY:rj	!	!	!	!	!LO:DY:rj
(16CC/LL	8gL 8e/	p	8g 8e/	Dzi-	Dzi-	I	p
16C/	.	.	.	.	.	.	.
16CC/	8cc 8e/	.	8cc 8e/	-siaj	-siaj	dzi-	.
16C/	.	.	.	.	.	.	.
16CC/	8a-XJ 8f/	.	8a-X 8f,</	cóż,	cóż	-siaj	.
16C/JJ)	.	.	.	.	.	.	.
=26	=26	=26	=26	=26	=26	=26	=26
*rep	*	*	*	*	*	*	*
(16CC/LL	(16f#XLL 16d#X/	.	(16f#XLL 16d#X/	z te-	z te-	cóż	.
16C/	16gJJ 16e/)	.	16gJJ 16e/)	.	.	.	.
16CC/	8ccL 8e/	.	8cc 8e/	-go	-go	po-	.
16C/	.	.	.	.	.	.	.
!	!LO:SIC:v:s=fn	!	!LO:SIC:v:s=fn	!	!	!	!
16CC/	8a-XJ 8f#/	.	8a-X 8f#/	zo-	zo-	-zo-	.
16C/JJ)	.	.	.	.	.	.	.
*Xrep	*	*	*	*	*	*	*
=27	=27	=27	=27	=27	=27	=27	=27
*rep	*	*	*	*	*	*	*
(16CC/LL	4.g 4.e/	.	4.g 4.e/	-sta-	-sta-	-sta-	.
16C/	.	.	.	.	.	.	.
16CC/	.	.	.	.	.	.	.
16C/	.	.	.	.	.	.	.
16CC/	.	.	.	.	.	.	.
16C/JJ)	.	.	.	.	.	.	.
*Xrep	*	*	*	*	*	*	*
=28	=28	=28	=28	=28	=28	=28	=28
*rep	*	*	*	*	*	*	*
!	!	!	!	!	!	!	!LO:DY:a
(16CC/LL	4e 4c/	.	4e 4c/	-ło	-ło	-ło	<
16C/	.	.	.	.	.	.	.
16CC/	.	.	.	.	.	.	.
16C/	.	.	.	.	.	.	.
16CC/	8g 8e/	.	8g 8e/	wspo-	.	.	[[
16C/JJ)	.	.	.	.	.	.	.
*Xrep	*	*	*	*	*	*	*
*Xtremolo	*	*	*	*	*	*	*
!!LO:LB:g=original
=29	=29	=29	=29	=29	=29	=29	=29
4F 4FF/	(8bL 8g/	.	8b 8g/	-mnie-	.	.	.
.	8aJ 8f/)	.	8a 8f/	-nie	.	.	.
8r	8r	.	8r	.	.	.	.
=30	=30	=30	=30	=30	=30	=30	=30
8DL 8DD/	8ffL 8a 8f/	.	8ff 8a\	tyl-	.	.	.
8F 8FF/	8a 8f/	.	8a 8f/	-ko	.	.	.
8GJ 8GG/	8bJ 8g 8f 8d/	.	8b 8d/	wspo-	.	.	.
=31	=31	=31	=31	=31	=31	=31	=31
*^	*	*	*	*	*	*	*
4.C/	(>8.C\L	(4.dd [>4.g (4.f/	.	4.dd 4.f/	-mnie-	.	.	.
.	16F\L	.	.	.	.	.	.	.
.	16G\	.	.	.	.	.	.	.
.	16B\JJ)	.	.	.	.	.	.	.
*v	*v	*	*	*	*	*	*	*
=32	=32	=32	=32	=32	=32	=32	=32
16c 16C\	16cc 16g] 16e/))	.	8cc 8e/	-nie	.	.	.
!	!	!LO:DY:rj	!	!	!	!	!
16G'\LL	16g'/LL	f	.	.	.	.	.
(16A\	(16a/	.	8r	.	.	.	.
16G\	16g/	.	.	.	.	.	.
16E\	16e/	.	8r	.	.	.	.
16C\JJ)	16c/JJ)	.	.	.	.	.	.
=33	=33	=33	=33	=33	=33	=33	=33
!	!	!	!	!	!	!	!LO:DY:rj
4G 4GG/	4dd 4b 4g/	.	4dd 4g/	Ah!	.	.	f
8r	8r	.	8r	.	.	.	.
!!LO:LB:g=original
=34	=34	=34	=34	=34	=34	=34	=34
4c 4C\	4ee 4cc 4g\	.	4ee 4cc\	tak!	.	.	.
8r	8r	.	8r	.	.	.	.
=35	=35	=35	=35	=35	=35	=35	=35
!	!	!LO:DY:rj	!	!	!	!	!LO:DY:rj
8A\L	8a/L	p	8a/	tyl-	.	.	p
8G\J	8g/J	.	8g/	-ko	.	.	.
8r	8r	.	16r	.	.	.	.
.	.	.	16g/	wspo-	.	.	.
=36	=36	=36	=36	=36	=36	=36	=36
8r	8r	.	4.g/	-mnie-	.	.	.
8r	8r	.	.	.	.	.	.
!	!	!LO:DY:rj	!	!	!	!	!
8G 8GG/	8bb 8gg 8ff 8dd\	f	.	.	.	.	.
=37	=37	=37	=37	=37	=37	=37	=37
8c 8C\	8ccc 8gg 8ee 8cc\	.	8c/	-nie.	.	.	.
8r	8r	.	8r	.	.	.	.
!	!LO:TX:b:t=V&colon; S&colon;	!	!	!	!	!	!
8r;	8r;	.	8r;	.	.	.	.
!!LO:PB:g=original
=38||	=38||	=38||	=38||	=38||	=38||	=38||	=38||
!LO:TX:t=P:problem=mixed beam	!	!LO:DY:rj	!	!	!	!	!LO:DY:rj
(>16FF/LL	(16aLL 16f/	p	8a 8f/	Te-	.	.	p
16F\	16c/	.	.	.	.	.	.
!	!	!	!	!	!	!	!LO:DY:a
16FF/	16a 16f/	.	8a 8f/	-raz	.	.	<
16F\JJ)	16c/JJ)	.	.	.	.	.	.
(16DD/LL	(16bLL 16g/	.	8b 8d/	iuż	.	.	.
16D/JJ)	16f/JJ)	.	.	.	.	.	[[
=39	=39	=39	=39	=39	=39	=39	=39
*tremolo	*	*	*	*	*	*	*
!	!	!	!	!	!	!	!LO:DY:a
(16CC/LL	(16ccLL 16e/	.	8cc 8e/	sto-	.	.	>
16C/	16g 16e/	.	.	.	.	.	.
16CC/	16e 16c/	.	4g 4e/	-ię	.	.	]
16C/	16g 16e/	.	.	.	.	.	.
16CC/	16cc 16e/	.	.	.	.	.	.
16C/JJ)	16gJJ 16e/)	.	.	.	.	.	.
*Xtremolo	*	*	*	*	*	*	*
=40	=40	=40	=40	=40	=40	=40	=40
!LO:TX:t=P:problem=mixed beam	!	!	!	!	!	!	!
(>16FF/LL	16aLL 16f/	.	16a 16f/	u-	.	.	.
!	!	!	!	!	!	!	!LO:DY:a
16F\	16c/	.	16a 16f/	-śmier-	.	.	<
16FF/	16a 16f/	.	8a 8f/	-tel-	.	.	.
16F\JJ)	16c/JJ	.	.	.	.	.	.
(16DD/LL	16bLL 16g/	.	8b 8d/	-nych	.	.	.
16D/JJ)	16f/JJ	.	.	.	.	.	[[
=41	=41	=41	=41	=41	=41	=41	=41
*tremolo	*	*	*	*	*	*	*
!	!	!	!	!	!	!	!LO:DY:a
(16CC/LL	(16ccLL 16e/	.	8cc 8e/	ce-	.	.	>
16C/	16g 16e/	.	.	.	.	.	.
16CC/	16e 16c/	.	4g 4e/	-lu	.	.	]]
16C/	16g 16e/	.	.	.	.	.	.
16CC/	16cc 16e/	.	.	.	.	.	.
16C/JJ)	16gJJ 16e/)	.	.	.	.	.	.
*Xtremolo	*	*	*	*	*	*	*
!!LO:LB:g=original
=42	=42	=42	=42	=42	=42	=42	=42
(16CC/LL	(16eeLL 16g/	.	8ee 8g/	ży-	.	.	.
16C/JJ)	16e/JJ)	.	.	.	.	.	.
!LO:TX:t=P:problem=mixed beam	!	!	!	!	!	!	!
(>16DD/LL	(16ddLL 16f/	.	8dd 8f/	-cie	.	.	.
16D\JJ)	16d/JJ)	.	.	.	.	.	.
!LO:TX:t=P:problem=mixed beam	!	!	!	!	!	!	!
(>16EE/LL	(16ccLL 16e/	.	8cc 8e/	u-	.	.	.
16E\JJ)	16c/JJ)	.	.	.	.	.	.
=43	=43	=43	=43	=43	=43	=43	=43
!LO:TX:t=P:problem=mixed beam	!	!	!	!	!	!	!
(16FF/LL	(16aLL 16f/	.	4a 4f/	-la-	.	.	.
16F\	16c/	.	.	.	.	.	.
16FF/	16a 16f/	.	.	.	.	.	.
16F\JJ)	16c/JJ)	.	.	.	.	.	.
(16DD/LL	(16ddLL 16f/	.	8dd 8d/	-ła,	.	.	.
16D/JJ)	16d/JJ)	.	.	.	.	.	.
=44	=44	=44	=44	=44	=44	=44	=44
!LO:TX:t=P:problem=mixed beam	!	!	!	!	!	!	!
16GG/LL	16ccLL 16e'/	.	16cc 16e/	jak	.	.	.
16G\JJ	16gJJ 16e'/	.	16g 16e/	pa-	.	.	.
*rep	*	*	*	*	*	*	*
!LO:TX:t=P:problem=mixed beam	!	!	!	!	!	!	!
16GG/LL	(16aLL 16f/	.	(16aLL 16f/	-ię-	.	.	.
16G\JJ	16gJJ 16e/)	.	16gJJ 16e/)	.	.	.	.
*Xrep	*	*	*	*	*	*	*
*rep	*	*	*	*	*	*	*
!LO:TX:t=P:problem=mixed beam	!	!	!	!	!	!	!
16GG/LL	(16aLL 16f/	.	(16aLL 16f/	-czy	.	.	.
16G\JJ	16bJJ 16d/)	.	16bJJ 16d/)	.	.	.	.
*Xrep	*	*	*	*	*	*	*
=45	=45	=45	=45	=45	=45	=45	=45
8B 8C\	8dd 8f/	.	8dd 8f/	wą-	.	.	.
4c 4C\	4cc 4e/	.	4cc 4e/	-tek	.	.	.
!!LO:LB:g=original
=46	=46	=46	=46	=46	=46	=46	=46
*tremolo	*	*	*	*	*	*	*
!LO:TX:t=P:problem=mixed beam	!	!LO:DY:rj	!	!	!	!	!LO:DY:rj
(>16GG/LL	8bL 8g^/	f	8b 8g/	Ja-	.	.	f
16G\	.	.	.	.	.	.	.
16GG/	8cc 8a^/	.	8cc 8a/	-każ	.	.	.
16G\	.	.	.	.	.	.	.
16GG/	8cc#XJ 8a#X^/	.	8cc#X 8a#X/	na-	.	.	.
16G\JJ)	.	.	.	.	.	.	.
=47	=47	=47	=47	=47	=47	=47	=47
*rep	*	*	*	*	*	*	*
!LO:TX:t=P:problem=mixed beam	!	!	!	!	!	!	!
(>16GG/LL	4dd 4b\	.	4dd 4b\	-gro-	.	.	.
16G\	.	.	.	.	.	.	.
16GG/	.	.	.	.	.	.	.
16G\	.	.	.	.	.	.	.
16GG/	8b 8g/	.	8b 8g/	-da	.	.	.
16G\JJ)	.	.	.	.	.	.	.
*Xrep	*	*	*	*	*	*	*
=48	=48	=48	=48	=48	=48	=48	=48
(16D\LL	(8.ccL 8.a/	.	8.cc 8.a/	tru-	.	.	.
16d\	.	.	.	.	.	.	.
16D\	.	.	.	.	.	.	.
16d\	16bL 16g/	.	16b 16g/	-dów	.	.	.
16D\	16a 16f#X/	.	16a 16f#X/	i	.	.	.
16d\JJ)	16ddJJ 16f#/)	.	16dd 16f#/	prac	.	.	.
*Xtremolo	*	*	*	*	*	*	*
=49	=49	=49	=49	=49	=49	=49	=49
!LO:TX:t=P:problem=mixed beam	!	!	!	!	!	!	!
(>16GG/LL	4b 4g/	.	4b 4g/	wie-	.	.	.
16G\	.	.	.	.	.	.	.
16GG/	.	.	.	.	.	.	.
16G\JJ)	.	.	.	.	.	.	.
(16DD/LL	8a 8f#X/	.	8a 8f#X/	-lu	.	.	.
16D\JJ)	.	.	.	.	.	.	.
!!LO:LB:g=original
=50	=50	=50	=50	=50	=50	=50	=50
!LO:TX:t=P:problem=mixed beam	!	!	!	!	!	!	!
(>16EE/LL	8gL 8e/	.	8g 8e/	Cóż	.	.	.
16E\	.	.	.	.	.	.	.
16EE/	8g 8e/	.	8g 8e/	z tąd	.	.	.
16E\JJ)	.	.	.	.	.	.	.
(16CC/LL	8aJ 8c/	.	8a 8c/	u-	.	.	.
16C/JJ)	.	.	.	.	.	.	.
=51	=51	=51	=51	=51	=51	=51	=51
*tremolo	*	*	*	*	*	*	*
(16BBB/LL	8b 8d#X/	.	8g 8B/	-nio-	.	.	.
16BB/	.	.	.	.	.	.	.
16BBB/	8f#XL 8d#/	.	8f#X 8d#X/	-sę	.	.	.
16BB/	.	.	.	.	.	.	.
16BBB/	8f#J 8d#/	.	8f# 8d#/	prócz	.	.	.
16BB/JJ)	.	.	.	.	.	.	.
=52	=52	=52	=52	=52	=52	=52	=52
8E/L	8gL 8e/	.	8g 8e/	smu-	.	.	.
8AA/	8e 8c/	.	8e 8c/	-tnych	.	.	.
8C/J	8aJ 8c/	.	8a 8c/	pa-	.	.	.
=53	=53	=53	=53	=53	=53	=53	=53
(16D\LL	(>8d/L	.	(>8d/L	-mią-	.	.	.
16B\	.	.	.	.	.	.	.
16B-X\	16eL 16c#X/	.	16eL 16c#X/	.	.	.	.
16A\JJ)	16f#XJJ 16cn/)	.	16f#XJJ 16cn/)	.	.	.	.
8G\	8g 8B/	.	8g 8B/	tek	.	.	.
!!LO:PB:g=original
=54	=54	=54	=54	=54	=54	=54	=54
!	!	!LO:DY:rj	!	!	!	!	!LO:DY:rj
(16CC/LL	8gL 8e/	p	8g 8e/	Je-	.	.	p
16C/	.	.	.	.	.	.	.
16CC/	8cc 8e/	.	8cc 8e/	-szcze	.	.	.
16C/	.	.	.	.	.	.	.
16CC/	8aJ 8f/	.	8a 8f/	raz	.	.	.
16C/JJ)	.	.	.	.	.	.	.
=55	=55	=55	=55	=55	=55	=55	=55
*rep	*	*	*	*	*	*	*
(16CC/LL	16f#XLL 16d#X/	.	(16f#XLL 16d#X/	ser-	.	.	.
16C/	16gJJ 16e/	.	16gJJ 16e/)	.	.	.	.
16CC/	8ccL 8e/	.	8cc 8e/	-ce	.	.	.
16C/	.	.	.	.	.	.	.
16CC/	8aJ 8fn/	.	8a 8fn/	za-	.	.	.
16C/JJ)	.	.	.	.	.	.	.
*Xrep	*	*	*	*	*	*	*
=56	=56	=56	=56	=56	=56	=56	=56
*rep	*	*	*	*	*	*	*
(16CC/LL	(4.g (4.e/	.	4.g 4.e/	-drza-	.	.	.
16C/	.	.	.	.	.	.	.
16CC/	.	.	.	.	.	.	.
16C/	.	.	.	.	.	.	.
16CC/	.	.	.	.	.	.	.
16C/JJ)	.	.	.	.	.	.	.
*Xrep	*	*	*	*	*	*	*
=57	=57	=57	=57	=57	=57	=57	=57
*rep	*	*	*	*	*	*	*
(16CC/LL	8e 8c/))	.	8e 8c/	-ło...	.	.	.
16C/	.	.	.	.	.	.	.
16CC/	8eL 8c/	.	8e 8c/	Je-	.	.	.
16C/	.	.	.	.	.	.	.
16CC/	8gJ 8e/	.	8g 8e/	-szcze	.	.	.
16C/JJ)	.	.	.	.	.	.	.
*Xrep	*	*	*	*	*	*	*
*Xtremolo	*	*	*	*	*	*	*
!!LO:LB:g=original
=58	=58	=58	=58	=58	=58	=58	=58
8CL 8CC/	8ccL 8g 8e/	.	(16ccLL 16e/	raz	.	.	.
.	.	.	32ddL 32f/	.	.	.	.
.	.	.	32ccJJJ 32e/	.	.	.	.
8G 8GG/	8b 8g 8d/	.	8b 8d/)	.	.	.	.
8CJ 8CC/	8ccJ 8g 8e/	.	8cc 8e/	o-	.	.	.
=59	=59	=59	=59	=59	=59	=59	=59
*tremolo	*	*	*	*	*	*	*
8GL 8GG\	8ddL 8b 8g/	.	(8ddL 8b\	-sta-	.	.	.
!	!	!	!	!	!	!	!LO:HP:t=cresc&colon;
8G 8GG\	8cc 8a/	.	8ccJ 8a\)	.	.	.	<
8GJ 8GG\	8ddJ 8b/	.	8dd 8b\	-tnie	.	.	.
=60	=60	=60	=60	=60	=60	=60	=60
!	!	!LO:DY:rj	!	!	!	!	!LO:DY:rj
(8.C\L	4.ee 4.cc 4.g\	f	4.ee 4.cc\	thnie-	.	.	f
16E\L	.	.	.	.	.	.	.
16G\	.	.	.	.	.	.	.
16c\JJ	.	.	.	.	.	.	.
=61	=61	=61	=61	=61	=61	=61	=61
4.C/)	4.cc 4.g 4.e/	.	4.cc 4.e/	-nie	.	.	.
=62	=62	=62	=62	=62	=62	=62	=62
!	!	!LO:DY:rj	!	!	!	!	!LO:DY:rj
(16CC/LL	8gL 8e/	p	8gL [8e/	Z źim-	.	.	p
16C/	.	.	.	.	.	.	.
16CC/	8ccJ 8e/	.	8ccJ 8e/]	.	.	.	.
16C/	.	.	.	.	.	.	.
16CC/	8a-X 8f/	.	8a-X 8f/	-nych	.	.	.
16C/JJ)	.	.	.	.	.	.	.
!!LO:LB:g=original
=63	=63	=63	=63	=63	=63	=63	=63
(16CC/LL	16f#XLL 16d#X/	.	16f#X 16d#X/	pier-	.	.	.
16C/	16gJJ 16e/	.	16g 16e/	-si	.	.	.
16CC/	8ccL 8e/	.	8cc 8e/	u-	.	.	.
16C/	.	.	.	.	.	.	.
16CC/	8a-XJ 8fn/	.	8a-X 8fn/	-le-	.	.	.
16C/JJ)	.	.	.	.	.	.	.
=64	=64	=64	=64	=64	=64	=64	=64
*rep	*	*	*	*	*	*	*
(16CC/LL	4.g 4.e/	.	4.g 4.e/	-cia-	.	.	.
16C/	.	.	.	.	.	.	.
16CC/	.	.	.	.	.	.	.
16C/	.	.	.	.	.	.	.
16CC/	.	.	.	.	.	.	.
16C/JJ)	.	.	.	.	.	.	.
*Xrep	*	*	*	*	*	*	*
=65	=65	=65	=65	=65	=65	=65	=65
*rep	*	*	*	*	*	*	*
(16CC/LL	4e 4c/	.	4e 4c/	-ło,	.	.	.
16C/	.	.	.	.	.	.	.
16CC/	.	.	.	.	.	.	.
16C/	.	.	.	.	.	.	.
16CC/	8g 8e/	.	8g 8e/	Lecz	.	.	.
16C/JJ)	.	.	.	.	.	.	.
*Xrep	*	*	*	*	*	*	*
=66	=66	=66	=66	=66	=66	=66	=66
8F 8FF/	8a 8f/	.	8a 8f/	czy	.	.	.
8r	8r	.	8r	.	.	.	.
8F 8FF/	8a 8f/	.	8a 8f/	zo-	.	.	.
=67	=67	=67	=67	=67	=67	=67	=67
!	!	!LO:DY:rj	!	!	!	!	!LO:DY:rj
8D 8DD/	8ff 8a\	f	8ff 8a\	-sta-	.	.	f
8.FL 8.FF/	8.aL 8.f/	.	8.a 8.f/	-nie	.	.	.
16GJk 16GG/	16bJk 16g 16f 16d/	.	16b 16d/	wspo-	.	.	.
!!LO:LB:g=original
=68	=68	=68	=68	=68	=68	=68	=68
!	!	!	!LO:TX:t=P:problem=diminuendolike accent	!	!	!	!
(8.C\L	4.dd 4.g 4.f/	.	4.dd 4.f^/	-mnie-	.	.	.
16F\L	.	.	.	.	.	.	.
16G\	.	.	.	.	.	.	.
16B\JJ	.	.	.	.	.	.	.
=69	=69	=69	=69	=69	=69	=69	=69
8c 8C\)	8cc 8g 8e/	.	8cc 8e/	-nie.	.	.	.
8r	8r	.	8r	.	.	.	.
!	!	!LO:DY:rj	!	!	!	!	!
8r	8gg\	p	8r	.	.	.	.
=70	=70	=70	=70	=70	=70	=70	=70
!LO:S:s=2:note:problem=note-level slur	!	!	!	!	!	!	!
(4.f (4.d (4.G\	(16ff#X\LL	.	4.r	.	.	.	.
.	16gg\	.	.	.	.	.	.
.	16gg#X\	.	.	.	.	.	.
.	16aa\	.	.	.	.	.	.
.	16aa#X\	.	.	.	.	.	.
.	16bb\JJ	.	.	.	.	.	.
=71	=71	=71	=71	=71	=71	=71	=71
8e)) 8c\)	8ccc\)	.	4.r	.	.	.	.
8r	8r	f	.	.	.	.	.
8G\	8g/	.	.	.	.	.	.
=72	=72	=72	=72	=72	=72	=72	=72
(16A\LL	(<16a/LL	.	4.r	.	.	.	.
16G\	16g/	.	.	.	.	.	.
16F#X\	16f#X/	.	.	.	.	.	.
16G\	16g/	.	.	.	.	.	.
16A\	16a/	.	.	.	.	.	.
16B\JJ	16b/JJ	.	.	.	.	.	.
=73	=73	=73	=73	=73	=73	=73	=73
8c\)	8cc\)	.	4.r	.	.	.	.
8r	8r	.	.	.	.	.	.
8r	8r	.	.	.	.	.	.
==	==	==	==	==	==	==	==
*-	*-	*-	*-	*-	*-	*-	*-
!!!system-decoration: s1{(s2,s3)}
!!!RDF**kern: > = above
!!!RDF**kern: < = below
!!!ENC: Marta Lawrence
!!!END: 2021-05-09
!!!ENC: Marcin Jachim
!!!END: 2021-04-27
